static/assets/img/icons/theme/files/downloaded-file.svg

<svg height="24" viewBox="0 0 24 24" width="24" xmlns="http://www.w3.org/2000/svg"><g fill="none" fill-rule="evenodd"><path d="m0 0h24v24h-24z" opacity="0"/><g fill="#000"><path d="m5.85714286 2h7.87926854c.3546848 0 .6978952.12568431.9686994.35473959l4.7635886 4.02920201c.3369538.28500673.5313006.70393663.5313006 1.14526041v12.55413129c0 1.7905418-.0204479 1.9166667-1.8571429 1.9166667h-12.28571424c-1.83669499 0-1.85714286-.1261249-1.85714286-1.9166667v-16.16666663c0-1.79054178.02044787-1.91666667 1.85714286-1.91666667z" fill-rule="nonzero" opacity=".3"/><path d="m14.8875071 11.8306874h-1.9564735v-2.00767134c0-.27614237-.2238576-.5-.5-.5h-1.0232987c-.2761424 0-.5.22385763-.5.5v2.00767134h-1.9564735c-.27614237 0-.5.2238576-.5.5 0 .1183116.04195378.2327902.11840318.3230849l2.96812282 3.5056611c.1784349.2107501.4939317.2369468.7046818.0585119.0210871-.0178538.0406581-.0374247.0585119-.0585119l2.9681228-3.5056611c.1784349-.2107501.1522382-.5262469-.0585119-.7046818-.0902947-.0764494-.2047733-.1184031-.3230849-.1184031z"/></g></g></svg>

<svg width="24px" height="24px" viewBox="0 0 24 24" version="1.1" xmlns="http://www.w3.org/2000/svg" xmlns:xlink="http://www.w3.org/1999/xlink">
    <title>Icon For Downloaded file</title>
    <g stroke="none" stroke-width="1" fill="none" fill-rule="evenodd">
        <polygon points="0 0 24 0 24 24 0 24" opacity="0"></polygon>
        <path d="M5.85714286,2 L13.7364114,2 C14.0910962,2 14.4343066,2.12568431 14.7051108,2.35473959 L19.4686994,6.3839416 C19.8056532,6.66894833 20,7.08787823 20,7.52920201 L20,20.0833333 C20,21.8738751 19.9795521,22 18.1428571,22 L5.85714286,22 C4.02044787,22 4,21.8738751 4,20.0833333 L4,3.91666667 C4,2.12612489 4.02044787,2 5.85714286,2 Z" fill="#000000" fill-rule="nonzero" opacity="0.3"></path>
        <path d="M14.8875071,11.8306874 L12.9310336,11.8306874 L12.9310336,9.82301606 C12.9310336,9.54687369 12.707176,9.32301606 12.4310336,9.32301606 L11.4077349,9.32301606 C11.1315925,9.32301606 10.9077349,9.54687369 10.9077349,9.82301606 L10.9077349,11.8306874 L8.9512614,11.8306874 C8.67511903,11.8306874 8.4512614,12.054545 8.4512614,12.3306874 C8.4512614,12.448999 8.49321518,12.5634776 8.56966458,12.6537723 L11.5377874,16.1594334 C11.7162223,16.3701835 12.0317191,16.3963802 12.2424692,16.2179453 C12.2635563,16.2000915 12.2831273,16.1805206 12.3009811,16.1594334 L15.2691039,12.6537723 C15.4475388,12.4430222 15.4213421,12.1275254 15.210592,11.9490905 C15.1202973,11.8726411 15.0058187,11.8306874 14.8875071,11.8306874 Z" fill="#000000"></path>
    </g>
</svg>
